media/costumes/S-glow.svg

<svg width="55" height="82" xmlns="http://www.w3.org/2000/svg"><path fill="#0CC" d="M53.78 59.432c-3.23 8.95-12.01 14.39-26.09 16.17-.64.08-1.27.13-1.9.15a11.04 11.04 0 0 1-3.15 3.05c-3.3 2.11-6.39 3.14-9.44 3.14-6.27 0-13.02-4.68-13.02-14.96 0-.7.03-1.61.1-2.87.03-.54.06-.96.07-1.27-.17-.78-.26-1.57-.26-2.37v-4.84c0-.79.08-1.58.24-2.37.01-.67.04-1.42.09-2.24-.24-.88-.42-1.9-.42-3.04 0-.52.04-1.04.11-1.55.38-2.68 1.57-5.37 3.58-7.52-.69-1.93-1.05-3.97-1.05-6.06v-5.1c0-2.07.41-4.65 2.42-11.07.84-2.76 1.11-3.62 1.48-4.42 1.97-4.42 4.94-6.63 7.1-7.72a25.03 25.03 0 0 1 11.26-2.66c1.82 0 3.56.19 5.22.55.74-.5 1.53-.92 2.37-1.27 1.07-.46 2.21-.78 3.47-.98 3.15-.54 6.48.13 9.38 1.89 3.05 1.86 6.55 5.72 6.12 13.66-.07 1.4-.19 3.27-.37 5.71-.01.06-.01.12-.02.18-.16 1.77-.39 4.41-.7 7.9.08 1.35.05 2.86-.07 4.64a10.66 10.66 0 0 1-.46 2.44c1.35 1.73 2.27 3.46 2.9 4.96.59 1.19 1.09 2.56 1.53 4.23.17.63.28 1.27.33 1.92.45 5.61.22 8.92-.82 11.72z"/><path fill="#FFF" d="M43.636 48.596c.293 3.637.233 5.981-.176 7.037-1.702 4.809-7.42 7.828-17.152 9.06-3.285.411-6.568-1.143-9.853-4.662 0 .528.117 2.111.353 4.751.176 1.935.146 3.518-.088 4.749-1.467.938-2.639 1.408-3.519 1.408-1.35 0-2.023-1.319-2.023-3.959 0-.469.029-1.216.088-2.242.058-1.025.088-1.744.088-2.155 0-.997-.088-1.7-.264-2.111v-4.838c0-.117.029-.249.088-.396.058-.146.117-.278.176-.396-.059-.82-.03-2.081.088-3.782.117-1.056.117-1.729 0-2.023-.294-.585-.439-.937-.439-1.055.233-1.642 1.437-2.463 3.606-2.463 1.407 0 2.257.499 2.551 1.495 0 .938.117 2.317.352 4.134.353 2.111 1.466 4.223 3.343 6.333 2.052 2.405 4.016 3.519 5.894 3.343a27.453 27.453 0 0 0 6.333-1.495c2.932-1.056 4.691-2.287 5.278-3.694a9.17 9.17 0 0 0 .615-3.343c0-3.576-1.319-6.245-3.958-8.004-1.174-.762-3.343-1.378-6.51-1.848-1.818-.233-2.933-.352-3.342-.352-2.815.059-5.44-.85-7.873-2.727-2.434-1.876-3.65-4.047-3.65-6.51V27.75c0-1.113.645-3.723 1.936-7.828.585-1.936.908-2.961.968-3.079.527-1.231 1.201-2.052 2.022-2.463a13.98 13.98 0 0 1 6.333-1.495c4.339 0 7.535 1.759 9.588 5.277.176.176.469.44.88.792.058-.82.176-2.081.352-3.782a446.65 446.65 0 0 0-.176-2.199c0-.82.409-1.377 1.231-1.671.234-.117.557-.205.968-.264.586-.117 1.217.03 1.892.439.673.411.952 1.643.835 3.694a199.66 199.66 0 0 1-.352 5.453c-.176 1.936-.439 4.897-.792 8.885.117.938.117 2.229 0 3.87-.294 1.114-1.174 1.671-2.639 1.671-.763 0-1.495-.205-2.199-.615-.352-1.113-.527-1.584-.527-1.408.116-1.583-.206-3.694-.968-6.333a412.204 412.204 0 0 1-2.683-5.761c-1.144-2.492-2.654-3.827-4.53-4.003-2.346-.176-3.87.616-4.574 2.375-.234.763-.558 1.878-.967 3.343-.704 2.17-1.144 4.252-1.32 6.245-.059.646-.118.91-.176.792.176 1.174.381 2.346.616 3.519.293 1.466 1.012 2.581 2.155 3.342 1.144.763 3.327 1.231 6.553 1.407 7.916.471 12.812 3.227 14.689 8.269.292.47.585 1.261.879 2.374z"/></svg>

<svg version="1.1" width="55" height="82" xmlns="http://www.w3.org/2000/svg" xmlns:xlink="http://www.w3.org/1999/xlink">
  <!-- Exported by Scratch - http://scratch.mit.edu/ -->
  <g id="ID0.9805312547832727">
    <g id="ID0.2794777057133615">
      <g id="ID0.2817511581815779">
        <path id="ID0.1519448710605502" fill="#00CCCC" d="M 53.780 59.432 C 50.550 68.382 41.770 73.822 27.690 75.602 C 27.050 75.682 26.420 75.732 25.790 75.752 C 24.970 76.952 23.900 77.992 22.640 78.802 C 19.340 80.912 16.250 81.942 13.200 81.942 C 6.930 81.942 0.180 77.262 0.180 66.982 C 0.180 66.282 0.210 65.372 0.280 64.112 C 0.310 63.572 0.340 63.152 0.350 62.842 C 0.180 62.062 0.090 61.272 0.090 60.472 L 0.090 55.632 C 0.090 54.842 0.170 54.052 0.330 53.262 C 0.340 52.592 0.370 51.842 0.420 51.022 C 0.180 50.142 0 49.122 0 47.982 C 0 47.462 0.040 46.942 0.110 46.432 C 0.490 43.752 1.680 41.062 3.690 38.912 C 3 36.982 2.640 34.942 2.640 32.852 L 2.640 27.752 C 2.640 25.682 3.050 23.102 5.060 16.682 C 5.900 13.922 6.170 13.062 6.540 12.262 C 8.510 7.842 11.480 5.632 13.640 4.542 C 17.170 2.782 20.960 1.882 24.900 1.882 C 26.720 1.882 28.460 2.072 30.120 2.432 C 30.860 1.932 31.650 1.512 32.490 1.162 C 33.560 0.702 34.700 0.382 35.960 0.182 C 39.110 -0.358 42.440 0.312 45.340 2.072 C 48.390 3.932 51.890 7.792 51.460 15.732 C 51.390 17.132 51.270 19.002 51.090 21.442 C 51.080 21.502 51.080 21.562 51.070 21.622 C 50.910 23.392 50.680 26.032 50.370 29.522 C 50.450 30.872 50.420 32.382 50.300 34.162 C 50.250 34.842 50.140 35.522 49.960 36.182 C 49.920 36.332 49.880 36.472 49.840 36.602 C 51.190 38.332 52.110 40.062 52.740 41.562 C 53.330 42.752 53.830 44.122 54.270 45.792 C 54.440 46.422 54.550 47.062 54.600 47.712 C 55.050 53.322 54.820 56.632 53.780 59.432 Z "/>
      </g>
    </g>
    <g id="ID0.20706806425005198">
      <path id="ID0.570444684009999" fill="#FFFFFF" d="M 43.636 48.596 C 43.929 52.233 43.869 54.577 43.460 55.633 C 41.758 60.442 36.040 63.461 26.308 64.693 C 23.023 65.104 19.740 63.550 16.455 60.031 C 16.455 60.559 16.572 62.142 16.808 64.782 C 16.984 66.717 16.954 68.300 16.720 69.531 C 15.253 70.469 14.081 70.939 13.201 70.939 C 11.851 70.939 11.178 69.620 11.178 66.980 C 11.178 66.511 11.207 65.764 11.266 64.738 C 11.324 63.713 11.354 62.994 11.354 62.583 C 11.354 61.586 11.266 60.883 11.090 60.472 L 11.090 55.634 C 11.090 55.517 11.119 55.385 11.178 55.238 C 11.236 55.092 11.295 54.960 11.354 54.842 C 11.295 54.022 11.324 52.761 11.442 51.060 C 11.559 50.004 11.559 49.331 11.442 49.037 C 11.148 48.452 11.003 48.100 11.003 47.982 C 11.236 46.340 12.440 45.519 14.609 45.519 C 16.016 45.519 16.866 46.018 17.160 47.014 C 17.160 47.952 17.277 49.331 17.512 51.148 C 17.865 53.259 18.978 55.371 20.855 57.481 C 22.907 59.886 24.871 61 26.749 60.824 C 28.860 60.591 30.971 60.092 33.082 59.329 C 36.014 58.273 37.773 57.042 38.360 55.635 C 38.769 54.579 38.975 53.466 38.975 52.292 C 38.975 48.716 37.656 46.047 35.017 44.288 C 33.843 43.526 31.674 42.910 28.507 42.440 C 26.689 42.207 25.574 42.088 25.165 42.088 C 22.350 42.147 19.725 41.238 17.292 39.361 C 14.858 37.485 13.642 35.314 13.642 32.851 L 13.642 27.750 C 13.642 26.637 14.287 24.027 15.578 19.922 C 16.163 17.986 16.486 16.961 16.546 16.843 C 17.073 15.612 17.747 14.791 18.568 14.380 C 20.561 13.384 22.672 12.885 24.901 12.885 C 29.240 12.885 32.436 14.644 34.489 18.162 C 34.665 18.338 34.958 18.602 35.369 18.954 C 35.427 18.134 35.545 16.873 35.721 15.172 C 35.662 14.410 35.603 13.677 35.545 12.973 C 35.545 12.153 35.954 11.596 36.776 11.302 C 37.010 11.185 37.333 11.097 37.744 11.038 C 38.330 10.921 38.961 11.068 39.636 11.477 C 40.309 11.888 40.588 13.120 40.471 15.171 C 40.412 16.461 40.295 18.279 40.119 20.624 C 39.943 22.560 39.680 25.521 39.327 29.509 C 39.444 30.447 39.444 31.738 39.327 33.379 C 39.033 34.493 38.153 35.050 36.688 35.050 C 35.925 35.050 35.193 34.845 34.489 34.435 C 34.137 33.322 33.962 32.851 33.962 33.027 C 34.078 31.444 33.756 29.333 32.994 26.694 C 32.348 25.346 31.455 23.426 30.311 20.933 C 29.167 18.441 27.657 17.106 25.781 16.930 C 23.435 16.754 21.911 17.546 21.207 19.305 C 20.973 20.068 20.649 21.183 20.240 22.648 C 19.536 24.818 19.096 26.900 18.920 28.893 C 18.861 29.539 18.802 29.803 18.744 29.685 C 18.920 30.859 19.125 32.031 19.360 33.204 C 19.653 34.670 20.372 35.785 21.515 36.546 C 22.659 37.309 24.842 37.777 28.068 37.953 C 35.984 38.424 40.880 41.180 42.757 46.222 C 43.049 46.692 43.342 47.483 43.636 48.596 Z "/>
    </g>
  </g>
</svg>
